projects/plugins/jetpack/images/recommendations/cloud-icon.svg

<svg fill="none" height="56" viewBox="0 0 56 56" width="56" xmlns="http://www.w3.org/2000/svg" xmlns:xlink="http://www.w3.org/1999/xlink"><mask id="a" height="26" maskUnits="userSpaceOnUse" width="38" x="9" y="13"><path clip-rule="evenodd" d="m40.4433 23.5954c.0003-.0353.0005-.0707.0005-.1064 0-5.67-5.0143-10.2666-11.2-10.2666-5.2215 0-9.6084 3.2754-10.849 7.707-.1164-.0047-.2334-.0071-.3509-.0071-4.811 0-8.71114 4.022-8.71114 8.9833 0 4.9614 3.90014 8.9834 8.71114 8.9834l.0518-.0003h21.0615c.0138.0003.0275.0003.0413.0003 4.1237 0 7.4667-3.4475 7.4667-7.7 0-3.8153-2.6906-6.9825-6.2219-7.5936z" fill="#fff" fill-rule="evenodd"/></mask><g mask="url(#a)"><path d="m40.4433 23.5954-3.4997-.0388-.0329 2.9795 2.9358.5082zm-22.0485-2.666-.1429 3.4971 2.7668.1132.7465-2.6667zm-.3509 17.9596v3.5h.0105zm.0518-.0003v-3.5h-.0105zm21.0615 0 .0198-3.5h-.0198zm4.7859-15.2546c.0005-.0481.0007-.0966.0007-.1451h-7c0 .0226 0 .0452-.0002.0676zm.0007-.1451c0-7.8835-6.8742-13.76659-14.7-13.76659v6.99999c4.5456 0 7.7 3.31 7.7 6.7666zm-14.7-13.76659c-6.6461 0-12.5178 4.18519-14.2195 10.26349l6.7409 1.8871c.7796-2.785 3.6818-5.1506 7.4786-5.1506zm-10.7062 7.70999c-.164-.0067-.3286-.0101-.4937-.0101v7c.0698 0 .1392.0014.208.0042zm-.4937-.0101c-6.8448 0-12.21114 5.6913-12.21114 12.4833h7.00004c0-3.1306 2.4338-5.4833 5.2111-5.4833zm-12.21114 12.4833c0 6.7921 5.36634 12.4834 12.21114 12.4834v-7c-2.7773 0-5.2111-2.3527-5.2111-5.4834zm12.22164 12.4834.0518-.0003-.021-7-.0518.0003zm.0413-.0003h21.0615v-7h-21.0615zm21.1028-6.9997c-.0075 0-.0145-.0003-.0215-.0003l-.0396 7c.0205.0003.041.0003.0611.0003zm3.9667-4.2c0 2.4217-1.8767 4.2-3.9667 4.2v7c6.1574 0 10.9667-5.1168 10.9667-11.2zm-3.3187-4.1447c1.8057.3124 3.3187 1.9833 3.3187 4.1447h7c0-5.4691-3.8682-10.1326-9.125-11.0423z" fill="#fff"/></g></svg>

<svg width="56" height="56" viewBox="0 0 56 56" fill="none" xmlns="http://www.w3.org/2000/svg">
	<mask id="mask0_1894_50698" style="mask-type:alpha" maskUnits="userSpaceOnUse" x="9" y="13" width="38" height="26">
		<path fill-rule="evenodd" clip-rule="evenodd" d="M40.4433 23.5954C40.4436 23.5601 40.4438 23.5247 40.4438 23.489C40.4438 17.819 35.4295 13.2224 29.2438 13.2224C24.0223 13.2224 19.6354 16.4978 18.3948 20.9294C18.2784 20.9247 18.1614 20.9223 18.0439 20.9223C13.2329 20.9223 9.33276 24.9443 9.33276 29.9056C9.33276 34.867 13.2329 38.889 18.0439 38.889L18.0957 38.8887H39.1572C39.171 38.889 39.1847 38.889 39.1985 38.889C43.3222 38.889 46.6652 35.4415 46.6652 31.189C46.6652 27.3737 43.9746 24.2065 40.4433 23.5954Z" fill="white"/>
	</mask>
	<g mask="url(#mask0_1894_50698)">
		<path d="M40.4433 23.5954L36.9436 23.5566L36.9107 26.5361L39.8465 27.0443L40.4433 23.5954ZM18.3948 20.9294L18.2519 24.4265L21.0187 24.5397L21.7652 21.873L18.3948 20.9294ZM18.0439 38.889V42.389H18.0544L18.0439 38.889ZM18.0957 38.8887V35.3887H18.0852L18.0957 38.8887ZM39.1572 38.8887L39.177 35.3887H39.1572V38.8887ZM43.9431 23.6341C43.9436 23.586 43.9438 23.5375 43.9438 23.489H36.9438C36.9438 23.5116 36.9438 23.5342 36.9436 23.5566L43.9431 23.6341ZM43.9438 23.489C43.9438 15.6055 37.0696 9.72241 29.2438 9.72241V16.7224C33.7894 16.7224 36.9438 20.0324 36.9438 23.489H43.9438ZM29.2438 9.72241C22.5977 9.72241 16.726 13.9076 15.0243 19.9859L21.7652 21.873C22.5448 19.088 25.447 16.7224 29.2438 16.7224V9.72241ZM18.5376 17.4324C18.3736 17.4257 18.209 17.4223 18.0439 17.4223V24.4223C18.1137 24.4223 18.1831 24.4237 18.2519 24.4265L18.5376 17.4324ZM18.0439 17.4223C11.1991 17.4223 5.83276 23.1136 5.83276 29.9056H12.8328C12.8328 26.775 15.2666 24.4223 18.0439 24.4223V17.4223ZM5.83276 29.9056C5.83276 36.6977 11.1991 42.389 18.0439 42.389V35.389C15.2666 35.389 12.8328 33.0363 12.8328 29.9056H5.83276ZM18.0544 42.389L18.1062 42.3887L18.0852 35.3887L18.0334 35.389L18.0544 42.389ZM18.0957 42.3887H39.1572V35.3887H18.0957V42.3887ZM39.1985 35.389C39.191 35.389 39.184 35.3887 39.177 35.3887L39.1374 42.3887C39.1579 42.389 39.1784 42.389 39.1985 42.389V35.389ZM43.1652 31.189C43.1652 33.6107 41.2885 35.389 39.1985 35.389V42.389C45.3559 42.389 50.1652 37.2722 50.1652 31.189H43.1652ZM39.8465 27.0443C41.6522 27.3567 43.1652 29.0276 43.1652 31.189H50.1652C50.1652 25.7199 46.297 21.0564 41.0402 20.1467L39.8465 27.0443Z" fill="white"/>
	</g>
</svg>
